resources/svg/minor-orders.svg

<svg xmlns="http://www.w3.org/2000/svg" viewBox="0 0 20 20" fill="currentColor"><path d="M3.735 5.507a3 3 0 0 1 2.96-2.507h6.61a3 3 0 0 1 2.96 2.507l.735 4.493v5a2 2 0 0 1-2 2h-10a2 2 0 0 1-2-2v-5l.735-4.493Zm2.96-.507a1 1 0 0 0-.987.836l-.708 4.164v1h1.394a3 3 0 0 1 1.665.504l.832.555a2 2 0 0 0 2.218 0l.832-.555a3 3 0 0 1 1.666-.504h1.393v-1l-.708-4.164a1 1 0 0 0-.986-.836h-6.612Z"/></svg>

<svg xmlns="http://www.w3.org/2000/svg" viewBox="0 0 20 20" fill="currentColor"><path d="M3.735 5.507A3 3 0 0 1 6.695 3h6.61a3 3 0 0 1 2.96 2.507L17 10v5a2 2 0 0 1-2 2H5a2 2 0 0 1-2-2v-5l.735-4.493ZM6.695 5a1 1 0 0 0-.987.836L5 10v1h1.394a3 3 0 0 1 1.665.504l.832.555a2 2 0 0 0 2.218 0l.832-.555A3 3 0 0 1 13.607 11H15v-1l-.708-4.164A1 1 0 0 0 13.306 5H6.694Z" fill="#5C5F62"/></svg>
